build/images/last-section/Vectorls-icon-11.svg

<svg width="78" height="72" viewBox="0 0 78 72" fill="none" xmlns="http://www.w3.org/2000/svg">
<path d="M22.879 22.1221L34.6789 33.2634M2.86557 69.6243C2.86557 69.6243 10.9575 75.195 23.9089 56.8549C23.9089 56.8549 31.0607 45.3092 32.5449 45.1496C34.0292 44.99 39.29 52.3537 40.7743 53.5774C42.2585 54.8012 43.0666 55.7482 46.3045 52.8964C48.576 50.8389 50.7376 48.6615 52.7802 46.3733C52.7802 46.3733 55.3419 45.3092 52.252 41.8881C49.162 38.4669 30.2631 19.7384 30.2631 19.7384C30.2631 19.7384 27.5641 16.4769 24.3262 20.4195C22.4439 22.7224 20.4167 24.9012 18.2572 26.9425C18.2572 26.9425 15.5581 27.8896 19.7361 31.9705C23.9142 36.0514 25.4037 37.6742 25.5463 38.0838C25.6889 38.4935 27.7014 39.712 25.9477 40.8027C25.9477 40.8027 18.1252 46.7139 15.912 48.0014C13.6989 49.289 7.61408 54.5245 5.52242 57.786C4.05445 60.0327 2.91923 62.4829 2.15252 65.0593C1.7775 66.2937 2.07856 69.2519 2.86557 69.6243ZM34.2194 10.9169C34.2194 10.9169 31.4886 13.0451 33.6119 15.9129C35.7353 18.7807 55.3631 37.7274 55.3631 37.7274C55.3631 37.7274 57.6924 41.8029 61.337 37.7274C64.9815 33.6518 74.8905 24.1705 74.8905 24.1705C74.8905 24.1705 78.5351 21.01 72.5664 19.2809C66.5978 17.5517 57.9935 7.04348 57.9935 7.04348C57.9935 7.04348 50.2026 -2.33141 39.8869 5.61757L34.2194 10.9169Z" stroke="#2FC9C8" stroke-width="3" stroke-linecap="round" stroke-linejoin="round"/>
</svg>

<svg width="78" height="72" fill="none" xmlns="http://www.w3.org/2000/svg"><path d="M22.879 22.122l11.8 11.141M2.866 69.624s8.091 5.571 21.043-12.77c0 0 7.152-11.545 8.636-11.704 1.484-.16 6.745 7.204 8.23 8.427 1.483 1.224 2.292 2.171 5.53-.68a86.718 86.718 0 0 0 6.475-6.524s2.562-1.064-.528-4.485c-3.09-3.421-21.989-22.15-21.989-22.15s-2.699-3.261-5.937.681a69.497 69.497 0 0 1-6.069 6.523s-2.699.948 1.48 5.029c4.177 4.08 5.667 5.703 5.81 6.113.142.41 2.154 1.628.4 2.719 0 0-7.822 5.91-10.035 7.198-2.213 1.288-8.298 6.524-10.39 9.785a27.787 27.787 0 0 0-3.37 7.273c-.375 1.235-.073 4.193.714 4.565zm31.353-58.707s-2.73 2.128-.607 4.996c2.123 2.868 21.751 21.814 21.751 21.814s2.33 4.076 5.974 0c3.644-4.075 13.553-13.556 13.553-13.556s3.645-3.161-2.324-4.89C66.598 17.55 57.993 7.043 57.993 7.043s-7.79-9.374-18.106-1.425l-5.668 5.299z" stroke="#2FC9C8" stroke-width="3" stroke-linecap="round" stroke-linejoin="round"/></svg>
